src/img/vk.svg

<svg width="21" height="20" viewBox="0 0 21 20" fill="none" xmlns="http://www.w3.org/2000/svg">
<path d="M15.1804 12.2863C15.1804 12.9366 15.0574 13.5079 14.8113 14.0001C14.5652 14.4923 14.2341 14.8995 13.8181 15.2218C13.3259 15.6085 12.7839 15.8839 12.1921 16.048C11.6062 16.212 10.8591 16.2941 9.95093 16.2941H4.71265V3.20715H9.33569C10.2966 3.20715 11.0232 3.24524 11.5154 3.32141C12.0134 3.39172 12.4792 3.54407 12.9128 3.77844C13.3816 4.0304 13.7302 4.36731 13.9587 4.78918C14.1931 5.21106 14.3103 5.69739 14.3103 6.24817C14.3103 6.88684 14.1492 7.4552 13.8269 7.95325C13.5105 8.45129 13.071 8.8175 12.5085 9.05188V9.12219C13.3171 9.29211 13.9646 9.64075 14.4509 10.1681C14.9373 10.6896 15.1804 11.3956 15.1804 12.2863ZM10.9705 6.90735C10.9705 6.69641 10.9148 6.47961 10.8035 6.25696C10.698 6.0343 10.531 5.87317 10.3025 5.77356C10.0857 5.67981 9.82788 5.63 9.52905 5.62415C9.23608 5.61243 8.79663 5.60657 8.21069 5.60657H7.98218V8.37512H8.39526C8.95776 8.37512 9.35034 8.36926 9.573 8.35754C9.80151 8.34583 10.0359 8.2843 10.2761 8.17297C10.5398 8.04993 10.7214 7.88 10.821 7.66321C10.9207 7.44641 10.9705 7.19446 10.9705 6.90735ZM11.7966 12.2247C11.7966 11.8204 11.7146 11.504 11.5505 11.2755C11.3865 11.047 11.1404 10.8741 10.8123 10.757C10.613 10.6808 10.3376 10.6398 9.98608 10.6339C9.64038 10.6222 9.17456 10.6163 8.58862 10.6163H7.98218V13.8947H8.15796C9.01343 13.8947 9.60522 13.8888 9.93335 13.8771C10.2615 13.8654 10.5955 13.7863 10.9353 13.6398C11.2341 13.5109 11.4509 13.3234 11.5857 13.0773C11.7263 12.8253 11.7966 12.5411 11.7966 12.2247Z" fill="#3E9CDC"/>
</svg>

<svg width="21" height="20" fill="none" xmlns="http://www.w3.org/2000/svg"><path d="M15.18 12.286c0 .65-.123 1.222-.369 1.714s-.577.9-.993 1.222a4.598 4.598 0 01-1.626.826c-.586.164-1.333.246-2.241.246H4.713V3.207h4.623c.96 0 1.687.038 2.18.114.497.07.963.223 1.397.457.469.252.817.59 1.046 1.011.234.422.351.908.351 1.46 0 .638-.16 1.206-.483 1.704a2.794 2.794 0 01-1.319 1.099v.07c.81.17 1.457.519 1.943 1.046.486.522.73 1.228.73 2.118zm-4.21-5.379c0-.21-.055-.427-.167-.65a.961.961 0 00-.5-.483 2.042 2.042 0 00-.774-.15 36.06 36.06 0 00-1.318-.017h-.229v2.768h.413c.563 0 .955-.006 1.178-.017.229-.012.463-.074.703-.185.264-.123.445-.293.545-.51.1-.217.15-.469.15-.756zm.827 5.318c0-.405-.082-.721-.247-.95-.164-.228-.41-.4-.738-.518-.199-.076-.474-.117-.826-.123a43.486 43.486 0 00-1.397-.018h-.607v3.279h.176c.855 0 1.447-.006 1.775-.018.329-.012.662-.09 1.002-.237.3-.13.516-.317.65-.563.141-.252.212-.536.212-.852z" fill="#3E9CDC"/></svg>
